Papirus/64x64/apps/sonic-pi.svg

<svg width="64" height="64" version="1.1" xmlns="http://www.w3.org/2000/svg">
 <rect x="4" y="5" width="56" height="56" rx="8.3999996" ry="8.3999996" style="opacity:.2"/>
 <rect x="4" y="4" width="56" height="56" rx="8.3999996" ry="8.3999996" style="fill:#e4e4e4"/>
 <path d="m7 25v5h3v14h5v-14h6v14h5v-14h3v-5z" style="opacity:.1"/>
 <path d="m7 24v5h3v14h5v-14h6v14h5v-14h3v-5z" style="fill:#f9548f"/>
 <path d="m43.199999 7.8s10.800001 14.2 10.800001 25.2c0 12-10.800001 22.4-10.800001 22.4s13.800001-8.4 13.800001-22.4-13.800001-25.2-13.800001-25.2zm-5.599999 8.4s8.4 8.8 8.4 16.8c0 8.4-8.4 16.8-8.4 16.8s11.4-5.8 11.4-16.8-11.4-16.8-11.4-16.8zm-5.6 5.6s5 5.6 5 11.2-5 11.2-5 11.2 8-4.2 8-11.2-8-11.2-8-11.2z" style="opacity:.1"/>
 <path d="m43.199999 6.8s10.800001 14.2 10.800001 25.2c0 12-10.800001 22.4-10.800001 22.4s13.800001-8.4 13.800001-22.4-13.800001-25.2-13.800001-25.2zm-5.599999 8.4s8.4 8.8 8.4 16.8c0 8.4-8.4 16.8-8.4 16.8s11.4-5.8 11.4-16.8-11.4-16.8-11.4-16.8zm-5.6 5.6s5 5.6 5 11.2-5 11.2-5 11.2 8-4.2 8-11.2-8-11.2-8-11.2z" style="fill:#333333"/>
 <path d="M 12.400391 4 C 7.7467908 4 4 7.7467908 4 12.400391 L 4 13.400391 C 4 8.7467908 7.7467908 5 12.400391 5 L 51.599609 5 C 56.253209 5 60 8.7467908 60 13.400391 L 60 12.400391 C 60 7.7467908 56.253209 4 51.599609 4 L 12.400391 4 z " style="fill:#ffffff;opacity:.2"/>
</svg>

<?xml version="1.0" encoding="UTF-8" standalone="no"?>
<svg
   id="_图层_1"
   version="1.1"
   viewBox="0 0 64 64" width="64" height="64"
   sodipodi:docname="sonic-pi.svg"
   xml:space="preserve"
   inkscape:version="1.4 (e7c3feb100, 2024-10-09)"
   xmlns:inkscape="http://www.inkscape.org/namespaces/inkscape"
   xmlns:sodipodi="http://sodipodi.sourceforge.net/DTD/sodipodi-0.dtd"
   xmlns="http://www.w3.org/2000/svg"
   xmlns:svg="http://www.w3.org/2000/svg"><sodipodi:namedview
     id="namedview26"
     pagecolor="#505050"
     bordercolor="#eeeeee"
     borderopacity="1"
     inkscape:showpageshadow="0"
     inkscape:pageopacity="0"
     inkscape:pagecheckerboard="0"
     inkscape:deskcolor="#505050"
     inkscape:zoom="8.453125"
     inkscape:cx="32"
     inkscape:cy="32"
     inkscape:window-width="1421"
     inkscape:window-height="796"
     inkscape:window-x="739"
     inkscape:window-y="37"
     inkscape:window-maximized="0"
     inkscape:current-layer="_图层_1" /><!-- Generator: Adobe Illustrator 29.0.1, SVG Export Plug-In . SVG Version: 2.1.0 Build 192)  --><defs
     id="defs6"><style
       id="style1">
      .st0 {
        fill-opacity: .5;
      }

      .st0, .st1, .st2, .st3, .st4, .st5, .st6, .st7 {
        fill: #fff;
      }

      .st8 {
        fill: #133c9a;
      }

      .st2, .st9 {
        display: none;
      }

      .st3 {
        fill-opacity: .2;
      }

      .st4 {
        fill-opacity: .9;
      }

      .st10 {
        fill: #3370ff;
      }

      .st11 {
        fill: url(#_未命名的渐变_3);
      }

      .st12 {
        fill: url(#_未命名的渐变);
      }

      .st5 {
        fill-opacity: .3;
      }

      .st6 {
        fill-opacity: 0;
      }

      .st7 {
        fill-opacity: .7;
      }

      .st13 {
        fill: #00d6b9;
      }

      .st14 {
        fill: url(#_未命名的渐变_2);
      }
    </style><radialGradient
       id="_未命名的渐变"
       data-name="未命名的渐变"
       cx="123.9"
       cy="-40.2"
       fx="123.9"
       fy="-40.2"
       r="59.4"
       gradientTransform="translate(-26.8 25.5) scale(.6 -.7)"
       gradientUnits="userSpaceOnUse"><stop
         offset="0"
         stop-color="#db202e"
         id="stop1" /><stop
         offset="1"
         stop-color="#e01b24"
         id="stop2" /></radialGradient><radialGradient
       id="_未命名的渐变_2"
       data-name="未命名的渐变 2"
       cx="67.6"
       cy="26.8"
       fx="67.6"
       fy="26.8"
       r="105.2"
       gradientTransform="translate(-26.6 25.3) scale(.6 -.7)"
       gradientUnits="userSpaceOnUse"><stop
         offset="0"
         stop-color="#ffb648"
         id="stop3" /><stop
         offset="1"
         stop-color="#ff7800"
         stop-opacity="0"
         id="stop4" /></radialGradient><radialGradient
       id="_未命名的渐变_3"
       data-name="未命名的渐变 3"
       cx="61.7"
       cy="18.6"
       fx="61.7"
       fy="18.6"
       r="68"
       gradientTransform="translate(-26.8 25.8) scale(.6 -.7)"
       gradientUnits="userSpaceOnUse"><stop
         offset="0"
         stop-color="#c64600"
         id="stop5" /><stop
         offset="1"
         stop-color="#a51d2d"
         id="stop6" /></radialGradient></defs><path
     class="st1"
     d="M47.5,64.1H13.8c-7.6,0-13.8-6.3-13.8-13.8V13.7C0,6.2,6.2,0,13.7,0h36.6c7.5,0,13.7,6.2,13.7,13.7v36.6c0,7.5-6.2,13.7-13.7,13.7h-2.9.1Z"
     id="path6"
     style="fill:#e4e4e4;fill-opacity:1" /><g
     id="g29"
     transform="matrix(1.1415368,0,0,1.1432046,-4.470029,-4.6125596)"><path
       d="m 7,25 v 5 h 3 v 14 h 5 V 30 h 6 v 14 h 5 V 30 h 3 v -5 z"
       style="opacity:0.1"
       id="path2" /><path
       d="m 7,24 v 5 h 3 v 14 h 5 V 29 h 6 v 14 h 5 V 29 h 3 v -5 z"
       style="fill:#f9548f"
       id="path3-9" /><path
       d="M 43.199999,7.8 C 43.199999,7.8 54,22 54,33 54,45 43.199999,55.4 43.199999,55.4 43.199999,55.4 57,47 57,33 57,19 43.199999,7.8 43.199999,7.8 Z M 37.6,16.2 c 0,0 8.4,8.8 8.4,16.8 0,8.4 -8.4,16.8 -8.4,16.8 C 37.6,49.8 49,44 49,33 49,22 37.6,16.2 37.6,16.2 Z M 32,21.8 c 0,0 5,5.6 5,11.2 0,5.6 -5,11.2 -5,11.2 0,0 8,-4.2 8,-11.2 0,-7 -8,-11.2 -8,-11.2 z"
       style="opacity:0.1"
       id="path4-1" /><path
       d="M 43.199999,6.8 C 43.199999,6.8 54,21 54,32 54,44 43.199999,54.4 43.199999,54.4 43.199999,54.4 57,46 57,32 57,18 43.199999,6.8 43.199999,6.8 Z M 37.6,15.2 c 0,0 8.4,8.8 8.4,16.8 0,8.4 -8.4,16.8 -8.4,16.8 C 37.6,48.8 49,43 49,32 49,21 37.6,15.2 37.6,15.2 Z M 32,20.8 c 0,0 5,5.6 5,11.2 0,5.6 -5,11.2 -5,11.2 0,0 8,-4.2 8,-11.2 0,-7 -8,-11.2 -8,-11.2 z"
       style="fill:#333333"
       id="path5" /></g></svg>
